naStart/img/connect_internet-icon.svg

<svg width="43" height="35" viewBox="0 0 43 35" fill="none" xmlns="http://www.w3.org/2000/svg">
<g clip-path="url(#clip0)">
<path d="M21.524 24.252C18.7579 24.252 16.5078 26.5233 16.5078 29.3154C16.5078 32.1075 18.7579 34.3788 21.524 34.3788C24.2901 34.3788 26.5402 32.1075 26.5402 29.3154C26.5402 26.5233 24.2901 24.252 21.524 24.252Z" fill="#8E8E8E"/>
<path d="M33.6283 17.5728C26.9542 10.8351 16.0933 10.8351 9.41924 17.5728C7.64736 19.3614 7.64736 22.2711 9.41924 24.0588C10.2773 24.925 11.4183 25.4027 12.6324 25.4027C13.8456 25.4027 14.9875 24.9258 15.8447 24.0597C17.3615 22.5286 19.3787 21.6849 21.5238 21.6849C23.6689 21.6849 25.686 22.5278 27.2028 24.0588C28.0608 24.925 29.2019 25.4019 30.416 25.4019C31.63 25.4019 32.7703 24.925 33.6291 24.0588C35.4002 22.2703 35.4002 19.3614 33.6283 17.5728Z" fill="#8E8E8E"/>
<path d="M41.1934 8.60199C35.9393 3.29841 28.9543 0.37793 21.5239 0.37793C14.0935 0.37793 7.10857 3.29841 1.85447 8.60199C0.996426 9.46811 0.523926 10.6199 0.523926 11.8446C0.523926 13.0701 0.996426 14.2219 1.85447 15.088C2.74041 15.9823 3.90361 16.4294 5.06764 16.4294C6.23084 16.4294 7.39486 15.9823 8.2808 15.088C11.8114 11.5233 16.5151 9.56002 21.5239 9.56002C26.5328 9.56002 31.2364 11.5233 34.7679 15.088C35.6259 15.9541 36.767 16.4311 37.981 16.4311C39.1951 16.4311 40.3353 15.9541 41.1942 15.088C42.0522 14.2219 42.5247 13.0701 42.5247 11.8446C42.5239 10.6199 42.0514 9.46811 41.1934 8.60199Z" fill="#8E8E8E"/>
</g>
<defs>
<clipPath id="clip0">
<rect width="42" height="34" fill="white" transform="translate(0.523926 0.37793)"/>
</clipPath>
</defs>
</svg>

<svg width="43" height="35" fill="none" xmlns="http://www.w3.org/2000/svg"><g clip-path="url(#clip0)" fill="#8E8E8E"><path d="M21.524 24.252c-2.766 0-5.016 2.271-5.016 5.063 0 2.793 2.25 5.064 5.016 5.064s5.016-2.271 5.016-5.064c0-2.792-2.25-5.063-5.016-5.063z"/><path d="M33.628 17.573c-6.674-6.738-17.535-6.738-24.209 0a4.621 4.621 0 000 6.486c.858.866 2 1.344 3.213 1.344a4.49 4.49 0 003.213-1.343 7.942 7.942 0 015.679-2.375c2.145 0 4.162.843 5.679 2.374a4.493 4.493 0 003.213 1.343 4.494 4.494 0 003.213-1.343 4.622 4.622 0 000-6.486z"/><path d="M41.193 8.602C35.94 3.298 28.954.378 21.523.378c-7.43 0-14.414 2.92-19.669 8.224a4.578 4.578 0 00-1.33 3.243c0 1.225.472 2.377 1.33 3.243a4.508 4.508 0 003.214 1.341 4.509 4.509 0 003.213-1.341A18.512 18.512 0 0121.524 9.56c5.009 0 9.712 1.963 13.244 5.528a4.493 4.493 0 003.213 1.343 4.494 4.494 0 003.213-1.343 4.578 4.578 0 001.33-3.243 4.582 4.582 0 00-1.33-3.243z"/></g><defs><clipPath id="clip0"><path fill="#fff" transform="translate(.524 .378)" d="M0 0h42v34H0z"/></clipPath></defs></svg>
